X: 11312
M: 6/8
L: 1/8
K: F
V: 1 clef=treble middle=B
c |\
(cAc) {fg}a2g | fed c2d | (cA).c (fc).a | (ba).g (gf).d |\
 cAc      a2g | fed c2d | (cA).c (fc).f | (ag).e f2 |]
g |\
gag fed | ccc b2c | (ac).c (fc).c | acc g3 |\
gag fed | dcc b2c | (ac).c (fc).c | gfe dcB |]
V: 2 clef=bass middle=d
z |\
f3 fac' | d'c'b afz | f3 f3 | c3 f2z |\
f3 fac' | d'c'b afb | a3 f3 | c3 f2 |]
z |\
c3 G3 | c3 egc' | f3 a3 | f2a c'ge |\
c3 G3 | c3 egc' | f3 a3 | c'3 z2z |]
fac' f'c'a | fac' f'c'a | bd'b afa | c'ge c3 |\
fac' f'c'a | fac' f'c'a | bd'b c'2c | fcA F2 |]

